X: 14
T: Banish Misfortune
Z: shanachie
S: https://thesession.org/tunes/9#setting50438
R: jig
M: 6/8
L: 1/8
K: Dmix
|:fed cAG|A2d cAG|FAF ~D3|FEF GFG|
AGA cAG|AGA B/^c/de|fed cAG|Ad^c d2e:|
|:f2d d^cd|f2g agf|e2c cBc|e2f gfe|
f2g agf|e2f gfe|fed cAG|Ad^c d2e:|
|:f2g e2f|ded cdc|~A3 GAG|F2A GED|
cdc cAG|AGA B/^c/de|fed cAG|Ad^c d2e:|

